SVG/Down.svg

<svg height="46" viewBox="0 0 34 46" width="34" xmlns="http://www.w3.org/2000/svg" xmlns:xlink="http://www.w3.org/1999/xlink"><filter id="a" height="198.2%" width="167.5%" x="-33.8%" y="-49.1%"><feOffset dx="0" dy="1" in="SourceAlpha" result="shadowOffsetOuter1"/><feGaussianBlur in="shadowOffsetOuter1" result="shadowBlurOuter1" stdDeviation=".9"/><feColorMatrix in="shadowBlurOuter1" result="shadowMatrixOuter1" type="matrix" values="0 0 0 0 0   0 0 0 0 0   0 0 0 0 0  0 0 0 0.65 0"/><feMerge><feMergeNode in="shadowMatrixOuter1"/><feMergeNode in="SourceGraphic"/></feMerge></filter><g fill="none" filter="url(#a)" transform="translate(5 11)"><path d="m0 0v3.98h6.01v1.06h-3.47l5.47 5.96 5.46-5.96h-3.48v-1.06h6.01v-3.98z" fill="#fff"/><path d="m1 2.98h6v3.04h-2.24l3.25 3.32 3.22-3.32h-2.25v-3.04h6v-1.96h-13.98z" fill="#000"/></g></svg>

<svg width="24" height="24" viewBox="0 0 24 24" xmlns="http://www.w3.org/2000/svg"><defs><filter x="-20%" y="-20%" width="140%" height="158.2%" filterUnits="objectBoundingBox" id="a"><feOffset dy="1" in="SourceAlpha" result="shadowOffsetOuter1"/><feGaussianBlur stdDeviation=".9" in="shadowOffsetOuter1" result="shadowBlurOuter1"/><feColorMatrix values="0 0 0 0 0 0 0 0 0 0 0 0 0 0 0 0 0 0 0.65 0" in="shadowBlurOuter1" result="shadowMatrixOuter1"/><feMerge><feMergeNode in="shadowMatrixOuter1"/><feMergeNode in="SourceGraphic"/></feMerge></filter></defs><g filter="url(#a)" transform="translate(4 10)" fill="none"><path fill="#FFF" d="M0 0v3.98h6.01v1.06H2.54L8.01 11l5.46-5.96H9.99V3.98H16V0z"/><path fill="#000" d="M1 2.98h6v3.04H4.76l3.25 3.32 3.22-3.32H8.98V2.98h6V1.02H1z"/></g></svg>
